assets/htc/mono.svg

<svg viewBox="0 0 24 24" xmlns="http://www.w3.org/2000/svg"><path d="m22 14.75h-2.8c-.7-.05-1.15-.5-1.2-1.15v-1.15c.05-.65.6-1.25 1.2-1.25h4.8v-1.25h-4.85c-.65.05-1.25.25-1.7.7-.4.4-.65 1.1-.7 1.75 0 .35-.05.85 0 1.15.05.75.3 1.3.7 1.7.4.45 1.05.7 1.7.7h4.85v-1.25c0 .05-1.3.05-2 .05m-13.5-4.75v1.25h2.95v4.7h1.25v-4.7h2.95v-1.25zm-1.3 2.35c0-.65-.25-1.25-.7-1.7-.5-.5-1.2-.7-1.7-.7h-2.45c-.55 0-.95.2-1.15.35v-2.3h-1.2v8h1.25v-3.6c.05-.65.55-1.15 1.15-1.2.5-.05 1.95-.05 2.4 0 .65.05 1.1.55 1.15 1.2v3.6h1.25z"/></svg>

<svg xmlns="http://www.w3.org/2000/svg" viewBox="0 0 24 24"><path d="M22 14.75h-2.8c-.7-.05-1.15-.5-1.2-1.15v-1.15c.05-.65.6-1.25 1.2-1.25H24V9.95h-4.85c-.65.05-1.25.25-1.7.7-.4.4-.65 1.1-.7 1.75 0 .35-.05.85 0 1.15.05.75.3 1.3.7 1.7.4.45 1.05.7 1.7.7H24V14.7c0 .05-1.3.05-2 .05M8.5 10v1.25h2.95v4.7h1.25v-4.7h2.95V10zm-1.3 2.35c0-.65-.25-1.25-.7-1.7-.5-.5-1.2-.7-1.7-.7H2.35c-.55 0-.95.2-1.15.35V8H0v8h1.25v-3.6c.05-.65.55-1.15 1.15-1.2.5-.05 1.95-.05 2.4 0 .65.05 1.1.55 1.15 1.2V16H7.2z"/></svg>
